images/client-logos/trumpf.svg

<svg height="80" viewBox="0 0 398 80" width="398" xmlns="http://www.w3.org/2000/svg"><g fill="#e3e8f0" fill-rule="evenodd"><path d="m372.628406 78.0527536h-19.362319v-77.92679128h44.391884v17.46667538h-25.029565v13.697913h25.029565v16.5292754h-25.029565z"/><path d="m0 .12454725h49.1222609v17.47243825h-14.1739131v60.4546087h-19.8329855v-60.4546087h-15.1153623z"/><path d="m324.927536 30.2292754c-.446956 1.3507246-.802898 2.1530434-1.768695 3.1820289-.957102 1.0289856-1.696812 1.4133334-2.952464 2.0144928-1.226087.5872464-1.975652.822029-3.307247 1.0672464h-5.07826-2.474783v-18.8991305h7.553043c2.831884.7113044 2.788406.7252174 4.254493 1.7733334 1.649276 1.1785507 2.216232 1.6828985 3.062609 3.1837101.606377 1.0666667.851594 1.7403478 1.063188 2.9611594.326957 1.8127537.230145 2.9617392-.351884 4.7171015zm18.775073-10.982029c-1.057392-4.168116-2.077102-6.6249276-4.84058-9.92347828-2.106087-2.49507247-3.668986-3.65913624-6.495652-5.3026145-2.495652-1.4573913-4.058551-2.08695072-6.846957-2.83767536-3.269565-.89797101-5.236521-.87478261-8.62029-1.0573913-2.942608-.16811595-4.616231-.16811595-7.553043 0h-20.314203v77.92782604h20.314203v-25.5115362c2.942029 0 4.605217.0573913 7.553043 0 3.687537-.0724638 5.774493-.0533333 9.44174-.3501449 2.831884-.2318841 4.173333-1.2701449 6.495652-2.7217391 2.683478-1.6684058 3.933333-3.0718841 5.905507-5.5536232 1.932174-2.417971 2.874203-3.9623189 4.013333-6.8417392 1.481739-3.7397101 1.736232-6.1344927 1.769276-10.1495652.024348-3.0185507-.081739-4.7588406-.822029-7.6782609z" fill-rule="nonzero"/><path d="m194.344928.12454725v77.92704695h17.948985v-48.4111884l16.524638 48.4111884h12.985507l16.534493-48.4111884v48.4111884h18.885797v-77.92704695h-26.208696l-15.351304 47.69440925-15.346087-47.69440925z"/><path d="m162.93913.12454725v47.69440925 3.3130435c.091015 1.7785507-.163478 2.8794203-.942029 4.4753623-.67884 1.3901449-1.308405 2.0921739-2.480579 3.0737971-1.058551.9037681-1.773913 1.3165218-3.067826 1.7727536-1.538551.5344928-2.524058.6446377-4.134493.4718841-1.236522-.1292754-1.937971-.3368116-3.077681-.822029-1.46087-.6486956-2.354783-1.0481159-3.417971-2.250029-.975652-1.0863768-1.268986-1.9327536-1.774493-3.3078261-.466087-1.2742029-.576812-2.0631884-.702029-3.413913v-3.3130435-47.69440404h-19.602319v47.69440404h-.12l.12 3.3130435c.125218 1.5727536.231884 2.4515942.477102 4.0052174.375072 2.4655072.528695 3.890029 1.293333 6.263942.841159 2.6115942 1.423188 4.0968116 2.946667 6.3715942 1.87942 2.7831884 3.433043 4.048116 6.144927 6.0237681 3.110145 2.2695653 5.148986 3.3228986 8.856232 4.3657971 3.648696 1.0342029 5.889275 1.0342029 9.677681.9426087 2.875942-.0626087 4.538551-.1101449 7.322899-.8231884 3.043478-.7628985 4.707246-1.5234782 7.433043-3.062029 2.754203-1.5675362 4.298551-2.5773913 6.49971-4.8463768 2.453334-2.5281159 3.539131-4.3275362 4.958261-7.5628985 1.302609-2.9611594 1.639421-4.8121739 2.124638-8.0245218.216811-1.4191304.273623-2.2313043.350145-3.653913v-3.3129855-47.69446725l-18.885218.00001101z"/><path d="m75.8017391 17.7775652h11.5721739c1.9478261.5437681 3.0243479 1.1982609 4.4852174 2.6017391 1.0684058 1.0289856 1.6168116 1.7310145 2.2405797 3.0724638.7797102 1.6544928.8231885 2.7692754.9472464 4.5965218.0968116 1.3889855.1733334 2.1971014-.12 3.5426087-.1976811.9617391-.3843478 1.4962318-.8272464 2.3657971-.6197101 1.2266666-1.0805797 1.9228985-2.1188405 2.8417391-1.4968116 1.2933333-2.6498551 1.8371014-4.6069566 2.1147826v.12h-11.5721739zm20.7797102 33.5309565v-.3744927c1.1872464-.2168116 2.3744927-.5576812 3.7779707-1.1489855 2.52-1.0631884 3.838261-1.9953623 5.909566-3.7942029 2.268985-1.9478261 3.480579-3.2695652 4.953043-5.8892754 1.74029-3.1060869 2.105507-5.2266087 2.6-8.7455072.496232-3.5529855.471884-5.6596522-.12-9.1982609-.518841-3.1587826-1.091594-4.9332754-2.48-7.7942029-1.563478-3.2492174-2.731594-5.05211594-5.313043-7.55710145-3.019711-2.9477971-5.182609-4.42373913-9.2075367-5.66837681-3.4857971-1.08753507-5.7895652-1.18840469-9.3275363-.83652058h-11.5721739-19.3624348v77.92681044h19.3624348v-25.5006377l16.0573913 25.5006377h23.6121736l-18.8898547-26.9197681z" fill-rule="nonzero"/></g></svg>

<?xml version="1.0" encoding="UTF-8"?>
<svg width="398px" height="80px" viewBox="0 0 398 80" version="1.1" xmlns="http://www.w3.org/2000/svg" xmlns:xlink="http://www.w3.org/1999/xlink">
    <!-- Generator: Sketch 52.4 (67378) - http://www.bohemiancoding.com/sketch -->
    <title>trumpf@1x</title>
    <desc>Created with Sketch.</desc>
    <g id="Page-1" stroke="none" stroke-width="1" fill="none" fill-rule="evenodd">
        <g id="trumpf" fill="#E3E8F0">
            <polygon id="Path" points="372.628406 78.0527536 353.266087 78.0527536 353.266087 0.125962319 397.657971 0.125962319 397.657971 17.5926377 372.628406 17.5926377 372.628406 31.2905507 397.657971 31.2905507 397.657971 47.8198261 372.628406 47.8198261"></polygon>
            <polygon id="Path" points="0 0.124547246 49.1222609 0.124547246 49.1222609 17.5969855 34.9483478 17.5969855 34.9483478 78.0515942 15.1153623 78.0515942 15.1153623 17.5969855 0 17.5969855"></polygon>
            <path d="M324.927536,30.2292754 C324.48058,31.58 324.124638,32.3823188 323.158841,33.4113043 C322.201739,34.4402899 321.462029,34.8246377 320.206377,35.4257971 C318.98029,36.0130435 318.230725,36.2478261 316.89913,36.4930435 L311.82087,36.4930435 L309.346087,36.4930435 L309.346087,17.593913 L316.89913,17.593913 C319.731014,18.3052174 319.687536,18.3191304 321.153623,19.3672464 C322.802899,20.5457971 323.369855,21.0501449 324.216232,22.5509565 C324.822609,23.6176232 325.067826,24.2913043 325.27942,25.5121159 C325.606377,27.3248696 325.509565,28.4738551 324.927536,30.2292174 L324.927536,30.2292754 Z M343.702609,19.2472464 C342.645217,15.0791304 341.625507,12.6223188 338.862029,9.32376812 C336.755942,6.82869565 335.193043,5.66463188 332.366377,4.02115362 C329.870725,2.56376232 328.307826,1.9342029 325.51942,1.18347826 C322.249855,0.285507246 320.282899,0.308695652 316.89913,0.126086957 C313.956522,-0.0420289855 312.282899,-0.0420289855 309.346087,0.126086957 L289.031884,0.126086957 L289.031884,78.053913 L309.346087,78.053913 L309.346087,52.5423768 C312.288116,52.5423768 313.951304,52.5997681 316.89913,52.5423768 C320.586667,52.469913 322.673623,52.4890435 326.34087,52.1922319 C329.172754,51.9603478 330.514203,50.922087 332.836522,49.4704928 C335.52,47.802087 336.769855,46.3986087 338.742029,43.9168696 C340.674203,41.4988986 341.616232,39.9545507 342.755362,37.0751304 C344.237101,33.3354203 344.491594,30.9406377 344.524638,26.9255652 C344.548986,23.9070145 344.442899,22.1667246 343.702609,19.2473043 L343.702609,19.2472464 Z" id="Shape" fill-rule="nonzero"></path>
            <polygon id="Path" points="194.344928 0.124547246 194.344928 78.0515942 212.293913 78.0515942 212.293913 29.6404058 228.818551 78.0515942 241.804058 78.0515942 258.338551 29.6404058 258.338551 78.0515942 277.224348 78.0515942 277.224348 0.124547246 251.015652 0.124547246 235.664348 47.8189565 220.318261 0.124547246"></polygon>
            <path d="M162.93913,0.124547246 L162.93913,47.8189565 L162.93913,51.132 C163.030145,52.9105507 162.775652,54.0114203 161.997101,55.6073623 C161.318261,56.9975072 160.688696,57.6995362 159.516522,58.6811594 C158.457971,59.5849275 157.742609,59.9976812 156.448696,60.453913 C154.910145,60.9884058 153.924638,61.0985507 152.314203,60.9257971 C151.077681,60.7965217 150.376232,60.5889855 149.236522,60.1037681 C147.775652,59.4550725 146.881739,59.0556522 145.818551,57.8537391 C144.842899,56.7673623 144.549565,55.9209855 144.044058,54.545913 C143.577971,53.2717101 143.467246,52.4827246 143.342029,51.132 L143.342029,47.8189565 L143.342029,0.124552464 L123.73971,0.124552464 L123.73971,47.8189565 L123.61971,47.8189565 L123.73971,51.132 C123.864928,52.7047536 123.971594,53.5835942 124.216812,55.1372174 C124.591884,57.6027246 124.745507,59.0272464 125.510145,61.4011594 C126.351304,64.0127536 126.933333,65.497971 128.456812,67.7727536 C130.336232,70.555942 131.889855,71.8208696 134.601739,73.7965217 C137.711884,76.066087 139.750725,77.1194203 143.457971,78.1623188 C147.106667,79.1965217 149.347246,79.1965217 153.135652,79.1049275 C156.011594,79.0423188 157.674203,78.9947826 160.458551,78.2817391 C163.502029,77.5188406 165.165797,76.7582609 167.891594,75.2197101 C170.645797,73.6521739 172.190145,72.6423188 174.391304,70.3733333 C176.844638,67.8452174 177.930435,66.0457971 179.349565,62.8104348 C180.652174,59.8492754 180.988986,57.9982609 181.474203,54.785913 C181.691014,53.3667826 181.747826,52.5546087 181.824348,51.132 L181.824348,47.8190145 L181.824348,0.124547246 L162.93913,0.124558261 L162.93913,0.124547246 Z" id="Path"></path>
            <path d="M75.8017391,17.7775652 L87.373913,17.7775652 C89.3217391,18.3213333 90.3982609,18.9758261 91.8591304,20.3793043 C92.9275362,21.4082899 93.475942,22.1103188 94.0997101,23.4517681 C94.8794203,25.1062609 94.9228986,26.2210435 95.0469565,28.0482899 C95.1437681,29.4372754 95.2202899,30.2453913 94.9269565,31.5908986 C94.7292754,32.5526377 94.5426087,33.0871304 94.0997101,33.9566957 C93.48,35.1833623 93.0191304,35.8795942 91.9808696,36.7984348 C90.484058,38.0917681 89.3310145,38.6355362 87.373913,38.9132174 L87.373913,39.0332174 L75.8017391,39.0332174 L75.8017391,17.7775652 Z M96.5814493,51.3085217 L96.5814493,50.934029 C97.7686957,50.7172174 98.955942,50.3763478 100.35942,49.7850435 C102.87942,48.7218551 104.197681,47.7896812 106.268986,45.9908406 C108.537971,44.0430145 109.749565,42.7212754 111.222029,40.1015652 C112.962319,36.9954783 113.327536,34.8749565 113.822029,31.356058 C114.318261,27.8030725 114.293913,25.6964058 113.702029,22.1577971 C113.183188,18.9990145 112.610435,17.2245217 111.222029,14.3635942 C109.658551,11.1143768 108.490435,9.31147826 105.908986,6.80649275 C102.889275,3.85869565 100.726377,2.38275362 96.7014493,1.13811594 C93.2156522,0.0505808696 90.9118841,-0.0502887536 87.373913,0.301595362 L75.8017391,0.301595362 L56.4393043,0.301595362 L56.4393043,78.2284058 L75.8017391,78.2284058 L75.8017391,52.7277681 L91.8591304,78.2284058 L115.471304,78.2284058 L96.5814493,51.3086377 L96.5814493,51.3085217 Z" id="Shape" fill-rule="nonzero"></path>
        </g>
    </g>
</svg>
